X:25
T: Otter's Hole
C: Junior Crehan
Z: B.Black
R: reel
M: 4/4
L: 1/8
K: D
de | fBBA F2 FB | A2 FB ABde | fBBA FEFA |\
BdcA B2 de |
fBBA F2 FB | A2 FB ABde | faaf e3 f | dBAF B2 :|
Bc | d2 fd adfa | b2 af efdA | d2 fd adfa |\
b2 af e2 Bc |
d2 fd adfa | b2 af efde | fBBA FEFA | BdcA B2 :|

